X:1
T:The Great White Throne
T:Eli G. Christy, 1874
T:The Great White Throne
T:Public Domain
T:Public Domain
T:Public Domain
C:Eli G. Christy, 1874
Z:Public Domain
%%score ( 1 2 ) ( 3 4 )
L:1/8
M:4/4
K:Eb
V:1 treble 
V:2 treble 
V:3 bass 
V:4 bass 
V:1
 E2 | [EG]2 [EG]2 [EF]2 E2 | [EB]4 [Ec]2 [EB]2 | [EG]2 [B,E]2 [EG]2 [B,F]2 | [B,E]6 E2 | %5
w: 1.~I|the bless- èd Je-|My Sav- ior|and my friend; Help|me to|
w: 2.~I|the bless- èd Je-|For me He|bled and died; And|in His|
w: 3.~O|me live for Je-|And bear His|cross be- low; And|if the|
w: 4.~Then|me die in Je-|His pre- sence|I shall have While|cross- ing|
 [EG]2 [EG]2 [EF]2 E2 | [EB]4 [Ec]2 [EB]2 | [EG]2 [B,E]2 [EG]2 [B,F]2 | [B,E]6 [EB]2 | %9
w: His prais- es, Till|ly life shall|end; And then in|gar- ments|
w: cious mer- it I’ll|er- more con-|fide; I’ll wor- ship|Him who|
w: ior calls me To|fer pain and|woe, I want to|be like|
w: ver Jor- dan, To|the trou- bled|wave; And when, tri-|umph- ant|
 [Ge]2 [Ge]2 [Ac]2 [GB]2 | [Ec]2 [EB]2 [EG]2 [EB]2 | [Ge]2 [Be]2 [Ac]2 [AB]2 | [Ge]6 [GB]2 | %13
w: pure and white, With|crowns and harps of|gold, We’ll meet this|friend on|
w: rose a- gain, Tri-|umph- ant o’er the|grave; And when we|meet as|
w: Je- sus still, And|al- ways watch and|pray. That I may|rest in|
w: o- ver death, I|gain the bliss- ful|shore, I’ll reign with|Him in|
 [Ge]2 [Ge]2 [GB]2 [EG][EB] | [Ec]2 [Ee]2 [EB]2 E2 | [EG]3 E [DF]2 [DG]2 | [B,E]6 || %17
w: the plains of light, His|glo- ry to be-|||
w: a ran- somed throng, We’ll|sing His pow’r to|||
w: the hap- py home, In|realms of end- less|When we ga- ther|the|
w: the world a- bove, When|time shall be no|||
"^Refrain" E[EF] | [EG]<[GB] [GB]>[EG] [DF]2 E2 | (E2 D2 E2) [GB][GB] | %20
w: |||
w: |||
w: great white|When we ga- ther round the|white * * throne, We|
w: |||
 [Ac]<[ce] [ce]>[Ac] [GB]2 [EG]2 | (D2 E2 B,2) E>F | G2 B2 [Ge]3 [GB] | [Ac]2 [Ae]2 [GB]2 E[EF] | %24
w: ||||
w: ||||
w: sing His praise thro’ end- less|days, * * When we|the great white throne.||
w: ||||
 [EG]<[GB] [GB]>[EG] [DF]2 [B,G]2 | [B,E]6 |] %26
w: ||
w: ||
w: ||
w: ||
V:2
 E2 | x6 E2 | x8 | x8 | x6 E2 | x6 E2 | x8 | x8 | x8 | x8 | x8 | x8 | x8 | x8 | x6 E2 | x3 E x4 | %16
w: love|sus,|||sing|earth-|||||||||hold.||
w: love|sus,|||pre-|ev-|||||||||save.||
w: let|sus,|||Sav-|suf-|||||||||day.|round|
w: let|sus;|||o-|calm|||||||||more.||
 x6 || E x | x6 E2 | B6 x2 | x8 | F6 E>F | G2 B2 x4 | x6 E x | x8 | x6 |] %26
w: ||||||||||
w: ||||||||||
w: |throne,|great|will||ga- ther round|||||
w: ||||||||||
V:3
 [E,G,]2 | [E,B,]2 [E,B,]2 [E,A,]2 [E,G,]2 | [E,G,]4 [E,A,]2 [E,G,]2 | %3
 [B,,B,]2 [B,,G,]2 [B,,B,]2 [B,,A,]2 | [E,G,]6 [E,G,]2 | [E,B,]2 [E,B,]2 [E,A,]2 [E,G,]2 | %6
 [E,G,]4 [E,A,]2 [E,G,]2 | [B,,B,]2 [B,,G,]2 [B,,B,]2 [B,,A,]2 | [E,G,]6 [E,G,]2 | %9
 [E,B,]2 [E,B,]2 [E,E]2 [E,E]2 | A,2 [G,B,]2 [E,B,]2 [E,G,]2 | [E,B,]2 [G,E]2 [A,E]2 B,2 | %12
 [E,B,]6 [E,E]2 | [E,B,]2 [E,B,]2 [E,E]2 [E,B,][G,B,] | A,2 [A,C]2 [G,B,]2 [E,G,]2 | %15
 [B,,B,]3 [B,,G,] [B,,A,]2 [B,,B,]2 | [E,G,]6 || [E,G,][E,A,] | %18
 [E,B,]<[E,E] [E,E]>[E,B,] [E,A,]2 [E,G,]2 | ([E,G,]2 [F,A,]2 [G,B,]2) [E,E][E,E] | %20
 [A,E]<[A,E] [A,E]>[A,E] [E,E]2 [E,B,]2 | ([B,,B,]2 [C,=A,]2 [D,_A,]2) E,>F, | %22
 G,2 B,2 [E,B,]3 [E,E] | [A,E]2 [C,E]2 [E,E]2 [E,G,][E,A,] | %24
 [E,B,]<[E,E] [E,E]>[E,B,] [B,,A,]2 [B,,B,]2 | [E,G,]6 |] %26
V:4
 x2 | x8 | x8 | x8 | x8 | x8 | x8 | x8 | x8 | x8 | A,2 x6 | x6 B,2 | x8 | x8 | A,2 x6 | x8 | x6 || %17
 x2 | x8 | x8 | x8 | x6 E,>F, | G,2 B,2 x4 | x8 | x8 | x6 |] %26

